X:666
T:Brudmarsch # 666
T:från Sorunda
M:2/4
L:1/16
Q:90
K:D
A2d2 A2F2|D4D2D2|B2(Bc) B2G2|E4E2E2|e2ef e2c2| A4B2c2|d3d d2d2|
d2A2 F2A2|A2d2 A2F2| D4 D2D2| B2(Bc) B2G2|E4E2E2|e2ef e2c2|A4B2(c2|
c2)de d2d2|1[dF]4z4:|2[dF]4z2|:((3efg|a2)a2 g2f2| e4e2g2|b2b2 g2{ag}e2| d4d2f2|
a2a2 g2f2|e4e2g2|b2b2  g2{ag}e2| d4d2d2| d2e2 f2d2| A3A A2A2|A4g2f2|e3e e2c2|
A4B2c2|c2dd d2d2|1[dF]4 z2:|2[dF]4 z4||

